source/svgs/commercial_solar.svg

<svg xmlns="http://www.w3.org/2000/svg" viewBox="0 0 6.07 9.72" preserveAspectRatio="xMinYMax"><path fill="#F5F5F5" d="M.63 6.28h1.98v1.98H.63zM.63.63h1.98v1.98H.63zM3.46 6.28h1.98v1.98H3.46zM.63 3.45h1.98v1.98H.63zM3.46 3.45h1.98v1.98H3.46zM3.46.63h1.98v1.98H3.46z"/><path fill="#28A197" d="M3.25 0H0V8.88h6.06V0H3.25zm-.64 2.61H.63V.63h1.98v1.98zm0 2.82H.63V3.45h1.98v1.98zm0 2.83H.63V6.28h1.98v1.98zm2.83-5.65H3.46V.63h1.98v1.98zm0 2.82H3.46V3.45h1.98v1.98zm0 2.83H3.46V6.28h1.98v1.98z"/><path fill="#28A197" d="M.63 8.26h4.81v1.46H.63z"/></svg>

<?xml version="1.0" encoding="utf-8"?>
<!-- Generator: Adobe Illustrator 18.1.0, SVG Export Plug-In . SVG Version: 6.00 Build 0)  -->
<svg version="1.1" id="Layer_1" xmlns="http://www.w3.org/2000/svg" xmlns:xlink="http://www.w3.org/1999/xlink" x="0px" y="0px"
	 viewBox="0 0 6.07 9.72" enable-background="new 0 0 6.07 9.72" xml:space="preserve" preserveAspectRatio="xMinYMax">
<g>
	<rect x="0.63" y="6.28" fill="#F5F5F5" width="1.98" height="1.98"/>
	<rect x="0.63" y="0.63" fill="#F5F5F5" width="1.98" height="1.98"/>
	<rect x="3.46" y="6.28" fill="#F5F5F5" width="1.98" height="1.98"/>
	<rect x="0.63" y="3.45" fill="#F5F5F5" width="1.98" height="1.98"/>
	<rect x="3.46" y="3.45" fill="#F5F5F5" width="1.98" height="1.98"/>
	<rect x="3.46" y="0.63" fill="#F5F5F5" width="1.98" height="1.98"/>
	<path fill="#28A197" d="M3.25,0H2.82H0v2.82v0.42v2.4v0.42v2.82h2.82h0.42h2.82V6.07V5.65v-2.4V2.82V0C6.07,0,3.25,0,3.25,0z
		 M2.61,2.61H0.63V0.63h1.98V2.61z M2.61,5.43H0.63V3.45h1.98V5.43z M2.61,8.26H0.63V6.28h1.98V8.26z M5.44,2.61H3.46V0.63h1.98
		V2.61z M5.44,5.43H3.46V3.45h1.98V5.43z M5.44,8.26H3.46V6.28h1.98V8.26z"/>
	<rect x="0.63" y="8.26" fill="#28A197" width="4.81" height="1.46"/>
</g>
</svg>
